lib/svg/bold.svg

<svg xmlns="http://www.w3.org/2000/svg" width="10" height="16" viewBox="0 0 10 16"><path d="M1 2h3.83c2.48 0 4.3.75 4.3 2.95 0 1.14-.63 2.23-1.67 2.61v.06c1.33.3 2.3 1.23 2.3 2.86 0 2.39-1.97 3.52-4.61 3.52H1V2zm3.66 4.95c1.67 0 2.38-.66 2.38-1.69 0-1.17-.78-1.61-2.34-1.61H3.13v3.3h1.53zm.27 5.39c1.77 0 2.75-.64 2.75-1.98 0-1.27-.95-1.81-2.75-1.81h-1.8v3.8h1.8v-.01z"/></svg>

<?xml version="1.0" encoding="UTF-8" standalone="no"?>
<svg width="10px" height="16px" viewBox="0 0 10 16" version="1.1" xmlns="http://www.w3.org/2000/svg" xmlns:xlink="http://www.w3.org/1999/xlink">
    <!-- Generator: Sketch 3.8.3 (29802) - http://www.bohemiancoding.com/sketch -->
    <title>bold</title>
    <desc>Created with Sketch.</desc>
    <defs></defs>
    <g id="Octicons" stroke="none" stroke-width="1" fill="none" fill-rule="evenodd">
        <g id="bold" fill="#000000">
            <path d="M1,2 L4.83,2 C7.31,2 9.13,2.75 9.13,4.95 C9.13,6.09 8.5,7.18 7.46,7.56 L7.46,7.62 C8.79,7.92 9.76,8.85 9.76,10.48 C9.76,12.87 7.79,14 5.15,14 L1,14 L1,2 L1,2 Z M4.66,6.95 C6.33,6.95 7.04,6.29 7.04,5.26 C7.04,4.09 6.26,3.65 4.7,3.65 L3.13,3.65 L3.13,6.95 L4.66,6.95 L4.66,6.95 Z M4.93,12.34 C6.7,12.34 7.68,11.7 7.68,10.36 C7.68,9.09 6.73,8.55 4.93,8.55 L3.13,8.55 L3.13,12.35 L4.93,12.35 L4.93,12.34 Z" id="Shape"></path>
        </g>
    </g>
</svg>
